X:116
T:La Honorine. RH.116
R:Quadrille
S:Rev.R.Harrison’s MS,c1815,Cumbria
N:Sounds like a tarantella.
O:England
A:Temple Sowerby,Cumbria
Z:vmp.Simon Wilson. Review PJH, 2008.
M:6/8
L:1/8
Q:3/8=120
K:G
b2d’|\
a2a {b}aga|b2a g2f|e2e c’ba|gfd b2d’|!
a2a {a}aga|b2a g2f|ec’b agf|g2″ Fine”z||!
b2b|a2a ^c’2c’|d’3 d’^c’b|a2a abg|g2f b2b|!
a2a ^c’2c’|d’^c’b agf|egf ed^c|dd’^c’||!
K:Bb
dgb|a2c’ ^f2a|g2d d’2b|d’bg {a}g^fg|a2z dgb|!
a2c’ ^f2a|g2d d’2b|ac’b ag^f|g2″ DC”z|]

